assets/img/braze_icons/home-smile.svg

<svg fill="none" height="24" viewBox="0 0 24 24" width="24" xmlns="http://www.w3.org/2000/svg"><path clip-rule="evenodd" d="m12.5227 1.33636c-.3423-.09268-.7031-.09268-1.0454 0-.3974.10759-.7319.37024-.9989.57987l-.0747.05842-6.85997 5.33547c-.37663.29228-.70844.54979-.9557.88409-.21699.29338-.37864.62389-.477.97529-.11208.40042-.11163.82043-.11111 1.2972l.00007 7.3718c-.00002.5272-.00004.9819.03057 1.3565.0323.3954.10361.7886.29641 1.167.28762.5644.74656 1.0234 1.31105 1.311.37838.1928.77159.2641 1.16694.2964.37457.0306.82932.0306 1.35646.0306h11.67718c.5271 0 .9818 0 1.3564-.0306.3954-.0323.7886-.1036 1.167-.2964.5644-.2876 1.0234-.7466 1.311-1.311.1928-.3784.2641-.7716.2964-1.167.0306-.3746.0306-.8293.0306-1.3564l.0001-7.3719c.0005-.47677.0009-.89678-.1112-1.2972-.0983-.3514-.26-.68191-.477-.97529-.2472-.33431-.579-.59181-.9557-.8841l-6.86-5.33546-.0746-.05842c-.267-.20963-.6016-.47228-.9989-.57987zm-3.42826 12.41434c-.13766-.5348-.68284-.8568-1.21769-.7191-.53486.1376-.85684.6828-.71918 1.2177.555 2.1563 2.51125 3.7507 4.84243 3.7507 2.3312 0 4.2874-1.5944 4.8424-3.7507.1377-.5349-.1843-1.0801-.7192-1.2177-.5348-.1377-1.08.1843-1.2177.7191-.3331 1.2942-1.509 2.2493-2.9055 2.2493s-2.57247-.9551-2.90556-2.2493z" fill="#801ed7" fill-rule="evenodd"/></svg>

<svg width="24" height="24" viewBox="0 0 24 24" fill="none" xmlns="http://www.w3.org/2000/svg">
<path fill-rule="evenodd" clip-rule="evenodd" d="M12.5227 1.33636C12.1804 1.24368 11.8196 1.24368 11.4773 1.33636C11.0799 1.44395 10.7454 1.7066 10.4784 1.91623L10.4037 1.97465L3.54373 7.31012C3.1671 7.6024 2.83529 7.85991 2.58803 8.19421C2.37104 8.48759 2.20939 8.8181 2.11103 9.1695C1.99895 9.56992 1.9994 9.98993 1.99992 10.4667L1.99999 17.8385C1.99997 18.3657 1.99995 18.8204 2.03056 19.195C2.06286 19.5904 2.13417 19.9836 2.32697 20.362C2.61459 20.9264 3.07353 21.3854 3.63802 21.673C4.0164 21.8658 4.40961 21.9371 4.80496 21.9694C5.17953 22 5.63428 22 6.16142 22H17.8386C18.3657 22 18.8204 22 19.195 21.9694C19.5904 21.9371 19.9836 21.8658 20.362 21.673C20.9264 21.3854 21.3854 20.9264 21.673 20.362C21.8658 19.9836 21.9371 19.5904 21.9694 19.195C22 18.8204 22 18.3657 22 17.8386L22.0001 10.4667C22.0006 9.98993 22.001 9.56992 21.8889 9.1695C21.7906 8.8181 21.6289 8.48759 21.4119 8.19421C21.1647 7.8599 20.8329 7.6024 20.4562 7.31011L13.5962 1.97465L13.5216 1.91623C13.2546 1.7066 12.92 1.44395 12.5227 1.33636ZM9.09444 13.7507C8.95678 13.2159 8.4116 12.8939 7.87675 13.0316C7.34189 13.1692 7.01991 13.7144 7.15757 14.2493C7.71257 16.4056 9.66882 18 12 18C14.3312 18 16.2874 16.4056 16.8424 14.2493C16.9801 13.7144 16.6581 13.1692 16.1232 13.0316C15.5884 12.8939 15.0432 13.2159 14.9055 13.7507C14.5724 15.0449 13.3965 16 12 16C10.6035 16 9.42753 15.0449 9.09444 13.7507Z" fill="#801ED7"/>
</svg>
